packages/astro-components-stencil/src/icons/lock.svg

<svg xmlns="http://www.w3.org/2000/svg" viewBox="0 0 24 24"><g xmlns="http://www.w3.org/2000/svg" id="lock" fill-rule="nonzero">
            <path d="M18 8h-1V6c0-2.76-2.24-5-5-5S7 3.24 7 6v2H6c-1.1 0-2 .9-2 2v10c0 1.1.9 2 2 2h12c1.1 0 2-.9 2-2V10c0-1.1-.9-2-2-2zm-6 9c-1.1 0-2-.9-2-2s.9-2 2-2 2 .9 2 2-.9 2-2 2zM9 8V6c0-1.66 1.34-3 3-3s3 1.34 3 3v2H9z"/>
        </g></svg>

<svg width="24" height="24" viewBox="0 0 24 24" fill="none" xmlns="http://www.w3.org/2000/svg">
<path fill-rule="evenodd" clip-rule="evenodd" d="M18 8H17V6C17 3.24 14.76 1 12 1C9.24 1 7 3.24 7 6V8H6C4.9 8 4 8.9 4 10V20C4 21.1 4.9 22 6 22H18C19.1 22 20 21.1 20 20V10C20 8.9 19.1 8 18 8ZM12 17C10.9 17 10 16.1 10 15C10 13.9 10.9 13 12 13C13.1 13 14 13.9 14 15C14 16.1 13.1 17 12 17ZM9 6V8H15V6C15 4.34 13.66 3 12 3C10.34 3 9 4.34 9 6Z" fill="black"/>
</svg>
